X:220 
T:Up & Down the Stairs 
F:file ID: cre.5/220up_down
B:CRE5.070 (Suas agus SÃÂÃÂÃÂÃÂ­os an Staighre)
Q:180
M:12/8
R:slide
K:D
d2e f2d e2g f2e|f2d B2d f2d B2c|
d2e f2d edc d2f|e2c A2c e2c A3:|
agf g2e f2e d2e|f2d B2d f2d efg|
a2f g2e f2e def|e2c A2c e2c A3:|

%%%

